projector-screen-off-outline.svg

<svg fill="currentColor" viewBox="0 0 24 24"><path d="m20.84 22.73 1.27-1.27L2.39 1.73 1.11 3 5 6.89V14h6v2.59l-4.21 4.2 1.42 1.42 2.79-2.8V22h2v-2.59l2.79 2.8 1.42-1.42-4.21-4.2v-1.7zM7 12V8.89L10.11 12zm1.2-7-3-3H20c.55 0 1 .45 1 1v1c0 .55-.45 1-1 1h-1v9h-1.8l-2-2H17V5z"/></svg>

<svg  viewBox="0 0 24 24" fill="currentColor"><path  d="M20.84 22.73L22.11 21.46L2.39 1.73L1.11 3L5 6.89V14H11V16.59L6.79 20.79L8.21 22.21L11 19.41V22H13V19.41L15.79 22.21L17.21 20.79L13 16.59V14.89L20.84 22.73M7 12V8.89L10.11 12H7M8.2 5L5.2 2H20C20.55 2 21 2.45 21 3V4C21 4.55 20.55 5 20 5H19V14H17.2L15.2 12H17V5H8.2Z"/></svg>
